X:1
T: The Marchioness of Huntly
C:William Marshall
R:Strathspey
Q: 128
K:Bb
M:4/4
L:1/16
|:D3E F3D EG3 F4|Gc3 c3d edcB AGFE|D3E F3D EG3 F4|G3c BAGF B4 B4|
D3E F3D EG3 F4|Gc3 c3d edcB AGFE|D3E F3D EG3 F4|G3c BAGF B4 B4|
d3f B3f d3f edcB|A3c F3c A3c F3e|d3f B3f d3f edcB|ABcd BAGF B4 B,3e|
A3c c3d edcB AGFE|D3E FD3 E2G2 F4|G3c BAGF B4-B4:|
